X:1
T:Title
%%score 1 { 2 | 3 }
L:1/8
Q:1/4=115
M:3/4
K:G
V:1 treble nm="Grand Piano, Soprano"
V:2 treble nm="Choir Pad, Santos, 10.10 D"
V:3 bass 
V:1
 [GB]3 [FA] [GB]2 | [Bd]3 [Ac] [GB]2 | [FA]2 G2 [FA]2 | [GB]4 z2 | [GB]3 [FA] [GB]2 | %5
w: By~Robert~Lowry,~1869 * *|||||
 [Gc]3 [GB] [EA]2 | [DA]2 [DG]2 [DF]2 | [DG]4 z2 | [GB]3 [FA] [GB]2 | [Bd]3 [Ac] [GB]2 | %10
w: |||||
 [FA]2 G2 [FA]2 | [GB]4 z2 | [GB]2 [Gc]2 [Gd]2 | [Ge]3 [Gd] [Ac]2 | [GB]2 [Ac]2 [FA]2 | G4 z2 | %16
w: ||||||
 [Gd]3 [Gc] [GB]2 | [GB]3 [DA] [DG]2 | [DG]2 [DF]2 [DG]2 | [FA]4 z2 | [Gd]3 [Gc] [GB]2 | %21
w: |||||
 [GB]3 [DA] [DG]2 | [DG]2 [DF]2 [DG]2 | [FA]4 z2 | [GB]3 [FA] [GB]2 | [Bd]3 [Ac] [GB]2 | %26
w: |||||
 [FA]2 G2 [FA]2 | [GB]4 z2 | [GB]2 [Gc]2 [Gd]2 | [Ge]3 [Gd] [Ac]2 | [GB]2 [Ac]2 [FA]2 | G6- | %32
w: ||||||
 G2 z2 z2 |] %33
w: |
V:2
 D3 D D2 | D3 D D2 | C2 B,2 D2 | D4 z2 | D3 D D2 | E3 D[K:bass] C2 | C2 B,2 A,2 | B,4 z2 | %8
 D3 D D2 | D3 D D2 | C2 B,2 D2 | D4 z2 | D2 C2 B,2 | C3 D E2 | D2 D2 C2 | B,4 z2 | B,3 A, G,2 | %17
 D3 C[K:treble] B,2 | D2 C2 B,2 | D4 z2 | B,3 A, G,2 | D3 C[K:treble] B,2 | D2 C2 B,2 | D4 z2 | %24
 D3 D D2 | D3 D D2 | C2 B,2 D2 | D4 z2 | D2 C2 B,2 | C3 D E2 | D2 D2 C2 | B,6- | B,2 z2 z2 |] %33
V:3
 G,3 G, G,2 | G,3 G, G,2 | D,2 D,2 D,2 | G,4 z2 | G,3 G, G,2 | C,3 C, C,2 | D,2 D,2 D,2 | G,,4 z2 | %8
 G,3 G, G,2 | G,3 G, G,2 | D,2 D,2 D,2 | G,4 z2 | =F,2 E,2 D,2 | C,3 B,, A,,2 | D,2 D,2 D,2 | %15
 G,,4 z2 | G,3 G, z2 | G,3 G, G,2 | B,2 A,2 G,2 | D,4 z2 | G,3 G, z2 | G,3 G, G,2 | B,2 A,2 G,2 | %23
 D,4 z2 | G,3 G, G,2 | G,3 G, G,2 | D,2 D,2 D,2 | G,4 z2 | =F,2 E,2 D,2 | C,3 B,, A,,2 | %30
 D,2 D,2 D,2 | G,,6- | G,,2 z2 z2 |] %33

